X: 93
T:High Ginks
M:2/2
L:1/8
S:John Young - Dancing Master, vol. 2 (1718)
K:F
cB|"F"A2F4 fg|a2f4 ga|"Bb"b2ag "F"f3^f|"G"g^fga "C"g2 cB|
"F"A2F4 fg|a2f4 ga|"Bb"b2 ag "C"g3f|"F"f6:|
ef|"C"g2 ga "A"g2 fe|"Dm"d2 d4 de|f2 ef "G"gfed|"C"c2 c4 ga|
"Bb"b2 b4 "C"ag|"F"a2 a4 gf|"Bb"e2f2 "C"gfeg|"F"f6||

